assets/dude/Design–Hank.svg

<svg width="486" height="102" viewBox="0 0 486 102" fill="none" xmlns="http://www.w3.org/2000/svg">
<path d="M1.58617 1.72004C0.886172 1.72004 0.326172 2.28004 0.326172 2.98004V35.74C0.326172 36.44 0.886172 37 1.58617 37H15.4462C16.1462 37 16.7062 37.56 16.7062 38.26V63.46C16.7062 64.02 16.1462 64.72 15.4462 64.72H1.58617C0.886172 64.72 0.326172 65.42 0.326172 65.98V98.74C0.326172 99.44 0.886172 100 1.58617 100H53.9462C70.6062 100 84.1862 86.42 84.1862 69.76V31.96C84.1862 15.3 70.6062 1.72004 53.9462 1.72004H1.58617ZM74.1062 55.9C74.1062 60.66 70.1862 64.72 65.2862 64.72H28.0462C27.3462 64.72 26.7862 64.02 26.7862 63.46V38.26C26.7862 37.56 27.3462 37 28.0462 37H65.2862C70.1862 37 74.1062 40.92 74.1062 45.82V55.9Z" fill="#FF1C31"/>
<path d="M173.964 100C174.664 100 175.224 99.44 175.224 98.74V58.84C175.224 58.14 174.664 57.58 173.964 57.58H166.684C165.984 57.58 165.424 58.14 165.424 58.84C165.424 62.2 162.624 64.72 159.124 64.72H119.784C119.084 64.72 118.524 64.02 118.524 63.46V55.9C118.524 55.2 119.084 54.64 119.784 54.64H131.544C132.244 54.64 132.804 55.2 132.804 55.9V57.16C132.804 57.86 133.364 58.42 134.064 58.42H152.964C153.664 58.42 154.224 57.86 154.224 57.16V44.56C154.224 43.86 153.664 43.3 152.964 43.3H134.064C133.364 43.3 132.804 43.86 132.804 44.56V45.82C132.804 46.52 132.244 47.08 131.544 47.08H119.784C119.084 47.08 118.524 46.52 118.524 45.82V38.26C118.524 37.56 119.084 37 119.784 37H159.124C162.624 37 165.424 39.38 165.424 42.88C165.424 43.58 165.984 44.14 166.684 44.14H173.964C174.664 44.14 175.224 43.58 175.224 42.88V2.98004C175.224 2.28004 174.664 1.72004 173.964 1.72004H93.3245C92.6245 1.72004 92.0645 2.28004 92.0645 2.98004V35.74C92.0645 36.44 92.6245 37 93.3245 37H107.184C107.884 37 108.444 37.56 108.444 38.26V63.46C108.444 64.02 107.884 64.72 107.184 64.72H93.3245C92.6245 64.72 92.0645 65.42 92.0645 65.98V98.74C92.0645 99.44 92.6245 100 93.3245 100H173.964Z" fill="#FF1C31"/>
<path d="M203.553 40.5C203.553 38.4 205.653 36.72 207.753 36.72H231.833C235.333 36.72 238.133 39.1 238.133 42.6C238.133 43.3 238.693 43.86 239.393 43.86H246.673C247.373 43.86 247.933 43.3 247.933 42.6V27.62C247.933 12.36 235.193 0.0400391 219.793 0.0400391H212.793C197.393 0.0400391 184.933 12.36 184.653 27.76V33.22C184.653 67.24 232.533 45.96 232.533 61.08C232.533 63.18 230.853 65 228.753 65H199.493C195.993 65 193.193 62.62 193.193 59.12C193.193 58.42 192.633 57.86 191.933 57.86H184.653C183.953 57.86 183.393 58.42 183.393 59.12V73.96C183.393 89.22 196.133 101.68 211.533 101.68H223.293C238.693 101.68 251.433 89.36 251.433 73.96V68.5C251.433 34.48 203.553 55.62 203.553 40.5Z" fill="#FF1C31"/>
<path d="M259.711 1.72004C259.011 1.72004 258.451 2.28004 258.451 2.98004V35.74C258.451 36.44 259.011 37 259.711 37H273.571C274.271 37 274.831 37.56 274.831 38.26V63.46C274.831 64.16 274.271 64.72 273.571 64.72H259.711C259.011 64.72 258.451 65.28 258.451 65.98V98.74C258.451 99.44 259.011 100 259.711 100H300.031C300.731 100 301.291 99.44 301.291 98.74V65.98C301.291 65.28 300.731 64.72 300.031 64.72H286.171C285.471 64.72 284.911 64.16 284.911 63.46V38.26C284.911 37.56 285.471 37 286.171 37H300.031C300.731 37 301.291 36.44 301.291 35.74V2.98004C301.291 2.28004 300.731 1.72004 300.031 1.72004H259.711Z" fill="#FF1C31"/>
<path d="M339.414 0.0400391C322.754 0.0400391 309.174 13.62 309.174 30.28V71.44C309.174 88.1 322.754 101.68 339.414 101.68H351.314C367.974 101.68 381.554 88.1 381.554 71.44V49.32C381.554 48.62 380.994 48.06 380.294 48.06H356.354C355.654 48.06 355.094 48.62 355.094 49.32V54.36C355.094 55.06 355.654 55.62 356.354 55.62H370.214C370.914 55.62 371.474 56.18 371.474 56.88V59.12C371.474 62.62 368.674 65 365.174 65H329.614C323.454 65 318.414 59.96 318.414 53.8V47.92C318.414 41.76 323.454 36.72 329.614 36.72H365.454C368.954 36.72 371.754 39.1 371.754 42.6C371.754 43.3 372.314 43.86 373.014 43.86H380.294C380.994 43.86 381.554 43.3 381.554 42.6V30.28C381.554 13.62 367.974 0.0400391 351.314 0.0400391H339.414Z" fill="#FF1C31"/>
<path d="M443.608 1.72004C442.908 1.72004 442.348 2.28004 442.348 2.98004V35.74C442.348 36.44 442.908 37 443.608 37H457.468C458.168 37 458.728 37.56 458.728 38.26V63.46C458.728 64.16 458.168 64.72 457.468 64.72H449.628C448.508 64.72 447.948 64.16 447.948 64.16L430.028 38.96C430.028 38.96 429.468 38.12 429.468 37.56C429.468 37.28 429.608 37 430.308 37H431.008C431.708 37 432.268 36.44 432.268 35.74V2.98004C432.268 2.28004 431.708 1.72004 431.008 1.72004H390.688C389.988 1.72004 389.428 2.28004 389.428 2.98004V35.74C389.428 36.44 389.988 37 390.688 37H404.548C405.248 37 405.808 37.56 405.808 38.26V63.46C405.808 64.16 405.248 64.72 404.548 64.72H390.688C389.988 64.72 389.428 65.28 389.428 65.98V98.74C389.428 99.44 389.988 100 390.688 100H431.008C431.708 100 432.268 99.44 432.268 98.74V65.98C432.268 65.28 431.708 64.72 431.008 64.72H417.148C416.448 64.72 415.888 64.16 415.888 63.46V39.1C415.888 38.54 416.168 38.26 416.448 38.26C417.148 38.26 417.848 39.38 417.848 39.38L459.708 97.9C460.548 99.16 462.088 100 463.768 100C466.568 100 468.808 97.76 468.808 94.96V38.26C468.808 37.56 469.368 37 470.068 37H483.928C484.628 37 485.188 36.44 485.188 35.74V2.98004C485.188 2.28004 484.628 1.72004 483.928 1.72004H443.608Z" fill="#FF1C31"/>
</svg>

<svg xmlns="http://www.w3.org/2000/svg" fill="none" viewBox="0 0 486 102"><path fill="#FF1C31" d="M1.586 1.72c-.7 0-1.26.56-1.26 1.26v32.76c0 .7.56 1.26 1.26 1.26h13.86c.7 0 1.26.56 1.26 1.26v25.2c0 .56-.56 1.26-1.26 1.26H1.586c-.7 0-1.26.7-1.26 1.26v32.76c0 .7.56 1.26 1.26 1.26h52.36c16.66 0 30.24-13.58 30.24-30.24v-37.8c0-16.66-13.58-30.24-30.24-30.24H1.586zm72.52 54.18c0 4.76-3.92 8.82-8.82 8.82h-37.24c-.7 0-1.26-.7-1.26-1.26v-25.2c0-.7.56-1.26 1.26-1.26h37.24c4.9 0 8.82 3.92 8.82 8.82V55.9zM173.964 100c.7 0 1.26-.56 1.26-1.26v-39.9c0-.7-.56-1.26-1.26-1.26h-7.28c-.7 0-1.26.56-1.26 1.26 0 3.36-2.8 5.88-6.3 5.88h-39.34c-.7 0-1.26-.7-1.26-1.26V55.9c0-.7.56-1.26 1.26-1.26h11.76c.7 0 1.26.56 1.26 1.26v1.26c0 .7.56 1.26 1.26 1.26h18.9c.7 0 1.26-.56 1.26-1.26v-12.6c0-.7-.56-1.26-1.26-1.26h-18.9c-.7 0-1.26.56-1.26 1.26v1.26c0 .7-.56 1.26-1.26 1.26h-11.76c-.7 0-1.26-.56-1.26-1.26v-7.56c0-.7.56-1.26 1.26-1.26h39.34c3.5 0 6.3 2.38 6.3 5.88 0 .7.56 1.26 1.26 1.26h7.28c.7 0 1.26-.56 1.26-1.26V2.98c0-.7-.56-1.26-1.26-1.26h-80.64c-.7 0-1.26.56-1.26 1.26v32.76c0 .7.56 1.26 1.26 1.26h13.86c.7 0 1.26.56 1.26 1.26v25.2c0 .56-.56 1.26-1.26 1.26h-13.86c-.7 0-1.26.7-1.26 1.26v32.76c0 .7.56 1.26 1.26 1.26h80.64zM203.553 40.5c0-2.1 2.1-3.78 4.2-3.78h24.08c3.5 0 6.3 2.38 6.3 5.88 0 .7.56 1.26 1.26 1.26h7.28c.7 0 1.26-.56 1.26-1.26V27.62c0-15.26-12.74-27.58-28.14-27.58h-7c-15.4 0-27.86 12.32-28.14 27.72v5.46c0 34.02 47.88 12.74 47.88 27.86 0 2.1-1.68 3.92-3.78 3.92h-29.26c-3.5 0-6.3-2.38-6.3-5.88 0-.7-.56-1.26-1.26-1.26h-7.28c-.7 0-1.26.56-1.26 1.26v14.84c0 15.26 12.74 27.72 28.14 27.72h11.76c15.4 0 28.14-12.32 28.14-27.72V68.5c0-34.02-47.88-12.88-47.88-28zM259.711 1.72c-.7 0-1.26.56-1.26 1.26v32.76c0 .7.56 1.26 1.26 1.26h13.86c.7 0 1.26.56 1.26 1.26v25.2c0 .7-.56 1.26-1.26 1.26h-13.86c-.7 0-1.26.56-1.26 1.26v32.76c0 .7.56 1.26 1.26 1.26h40.32c.7 0 1.26-.56 1.26-1.26V65.98c0-.7-.56-1.26-1.26-1.26h-13.86c-.7 0-1.26-.56-1.26-1.26v-25.2c0-.7.56-1.26 1.26-1.26h13.86c.7 0 1.26-.56 1.26-1.26V2.98c0-.7-.56-1.26-1.26-1.26h-40.32zM339.414.04c-16.66 0-30.24 13.58-30.24 30.24v41.16c0 16.66 13.58 30.24 30.24 30.24h11.9c16.66 0 30.24-13.58 30.24-30.24V49.32c0-.7-.56-1.26-1.26-1.26h-23.94c-.7 0-1.26.56-1.26 1.26v5.04c0 .7.56 1.26 1.26 1.26h13.86c.7 0 1.26.56 1.26 1.26v2.24c0 3.5-2.8 5.88-6.3 5.88h-35.56c-6.16 0-11.2-5.04-11.2-11.2v-5.88c0-6.16 5.04-11.2 11.2-11.2h35.84c3.5 0 6.3 2.38 6.3 5.88 0 .7.56 1.26 1.26 1.26h7.28c.7 0 1.26-.56 1.26-1.26V30.28c0-16.66-13.58-30.24-30.24-30.24h-11.9zM443.608 1.72c-.7 0-1.26.56-1.26 1.26v32.76c0 .7.56 1.26 1.26 1.26h13.86c.7 0 1.26.56 1.26 1.26v25.2c0 .7-.56 1.26-1.26 1.26h-7.84c-1.12 0-1.68-.56-1.68-.56l-17.92-25.2s-.56-.84-.56-1.4c0-.28.14-.56.84-.56h.7c.7 0 1.26-.56 1.26-1.26V2.98c0-.7-.56-1.26-1.26-1.26h-40.32c-.7 0-1.26.56-1.26 1.26v32.76c0 .7.56 1.26 1.26 1.26h13.86c.7 0 1.26.56 1.26 1.26v25.2c0 .7-.56 1.26-1.26 1.26h-13.86c-.7 0-1.26.56-1.26 1.26v32.76c0 .7.56 1.26 1.26 1.26h40.32c.7 0 1.26-.56 1.26-1.26V65.98c0-.7-.56-1.26-1.26-1.26h-13.86c-.7 0-1.26-.56-1.26-1.26V39.1c0-.56.28-.84.56-.84.7 0 1.4 1.12 1.4 1.12l41.86 58.52c.84 1.26 2.38 2.1 4.06 2.1 2.8 0 5.04-2.24 5.04-5.04v-56.7c0-.7.56-1.26 1.26-1.26h13.86c.7 0 1.26-.56 1.26-1.26V2.98c0-.7-.56-1.26-1.26-1.26h-40.32z"/></svg>
